images/smile_purple.svg

<svg width="21" height="21" viewBox="0 0 21 21" fill="none" xmlns="http://www.w3.org/2000/svg">
<circle cx="10.5002" cy="10.5" r="10.5" fill="#C65CC0"/>
<path d="M15.9597 8.58852C16.1489 8.58852 16.3397 8.51608 16.4848 8.37026C16.7754 8.08029 16.7753 7.60939 16.4846 7.3195C15.5667 6.40168 14.0742 6.40168 13.1562 7.3195C12.8655 7.60941 12.8654 8.08039 13.1561 8.37035C13.446 8.661 13.917 8.661 14.2069 8.37036C14.5449 8.03233 15.0957 8.03227 15.4338 8.37019C15.5789 8.51614 15.7698 8.58852 15.9597 8.58852Z" fill="white" stroke="white" stroke-width="0.347107"/>
<path d="M3.67678 12.9388L3.67678 12.9388L3.67659 12.939C3.38665 13.229 3.38665 13.6999 3.67659 13.9898C5.55829 15.8715 8.02969 16.8119 10.5003 16.8119C12.9709 16.8119 15.4423 15.8715 17.3233 13.9898C17.6133 13.6998 17.6132 13.229 17.3233 12.939C17.0334 12.6491 16.5625 12.6491 16.2726 12.939C13.0899 16.1217 7.91074 16.1217 4.72806 12.939L4.72786 12.9388C4.43726 12.6492 3.96738 12.6492 3.67678 12.9388Z" fill="white" stroke="white" stroke-width="0.347107"/>
<path d="M7.72171 8.2476L7.84443 8.37033C8.13437 8.08039 8.13437 7.6095 7.84443 7.31957L7.84433 7.31946C7.39961 6.87551 6.80799 6.63004 6.17943 6.63004C5.55091 6.63004 4.95922 6.8755 4.51515 7.31957C4.22522 7.6095 4.22522 8.08039 4.51515 8.37033C4.80569 8.66086 5.27602 8.66114 5.5661 8.37013L5.44319 8.24761L5.56568 8.37055C5.73052 8.20631 5.94784 8.11641 6.17943 8.11641C6.41186 8.11641 6.62902 8.20638 6.79296 8.37033C6.93846 8.51582 7.12837 8.58849 7.3187 8.58849C7.5087 8.58849 7.69965 8.51603 7.84482 8.36993L7.72171 8.2476ZM7.72171 8.2476C7.61063 8.35939 7.46467 8.41493 7.3187 8.41493C7.17273 8.41493 7.02747 8.35939 6.91568 8.2476C6.71916 8.05108 6.45784 7.94285 6.17943 7.94285C5.90174 7.94285 5.64042 8.05108 5.44319 8.2476C5.22103 8.47047 4.86074 8.47047 4.63787 8.2476C4.41571 8.02545 4.41571 7.66444 4.63787 7.44229C5.04943 7.03073 5.59699 6.80359 6.17943 6.80359C6.76188 6.80359 7.30944 7.03073 7.72171 7.44229C7.94387 7.66444 7.94387 8.02545 7.72171 8.2476Z" fill="white" stroke="white" stroke-width="0.347107"/>
</svg>

<svg width="21" height="21" fill="none" xmlns="http://www.w3.org/2000/svg"><circle cx="10.5" cy="10.5" r="10.5" fill="#C65CC0"/><path d="M15.96 8.589a.742.742 0 00.525-1.269 2.356 2.356 0 00-3.329 0 .742.742 0 101.05 1.05.869.869 0 011.228 0 .74.74 0 00.526.219zM3.677 12.939h0c-.29.29-.29.76 0 1.05a9.62 9.62 0 006.823 2.823c2.47 0 4.942-.94 6.823-2.822a.743.743 0 00-1.05-1.051c-3.183 3.183-8.362 3.183-11.545 0h0a.744.744 0 00-1.051 0zM7.722 8.248l.122.122c.29-.29.29-.76 0-1.05h0a2.343 2.343 0 00-1.665-.69 2.34 2.34 0 00-1.664.69.743.743 0 001.051 1.05l-.123-.122.123.123a.863.863 0 01.613-.255c.233 0 .45.09.614.254a.74.74 0 001.052 0l-.123-.122zm0 0a.566.566 0 01-.806 0 1.034 1.034 0 00-.737-.305c-.277 0-.539.108-.736.305a.569.569 0 11-.805-.806c.411-.411.959-.638 1.541-.638.583 0 1.13.227 1.543.638a.57.57 0 010 .806z" fill="#fff" stroke="#fff" stroke-width=".347"/></svg>
